packages/icons/svg/24/Star.svg

<svg width="24" height="24" viewBox="0 0 24 24" fill="none" xmlns="http://www.w3.org/2000/svg">
<path fill-rule="evenodd" clip-rule="evenodd" d="M11.9861 18.275L5.81434 20.9947L6.49373 14.2846L1.99999 9.25532L8.59162 7.82793L11.9861 2L15.3805 7.82793L21.9722 9.25532L17.4784 14.2846L18.1578 20.9947L11.9861 18.275Z" fill="#858585"/>
</svg>

<svg width="24" height="24" fill="none" xmlns="http://www.w3.org/2000/svg" viewBox="0 0 24 24"><path fill-rule="evenodd" clip-rule="evenodd" d="M11.986 18.275l-6.172 2.72.68-6.71L2 9.255l6.592-1.427L11.986 2l3.394 5.828 6.592 1.427-4.494 5.03.68 6.71-6.172-2.72z" fill="currentColor"></path></svg>
